packages/kaspersky-hexa-ui-icons/src/iconsSVGs/16/FontBold.svg

<svg width="16" height="16" viewBox="0 0 16 16" fill="none" xmlns="http://www.w3.org/2000/svg">
<path d="M3 2H8.18644C9.45198 2 10.4237 2.28571 11.1017 2.85714C11.791 3.42857 12.1356 4.18857 12.1356 5.13714C12.1356 6.16571 11.7175 6.88571 10.8814 7.29714V7.64C11.5593 7.83429 12.0791 8.17143 12.4407 8.65143C12.8136 9.13143 13 9.73143 13 10.4514C13 11.1029 12.8531 11.6971 12.5593 12.2343C12.2655 12.7714 11.8079 13.2 11.1864 13.52C10.5763 13.84 9.80226 14 8.86441 14H3V2ZM8.11864 6.66286C8.57062 6.66286 8.91525 6.56571 9.15254 6.37143C9.38983 6.16571 9.50848 5.88 9.50848 5.51429C9.50848 5.14857 9.38983 4.87429 9.15254 4.69143C8.91525 4.49714 8.57062 4.4 8.11864 4.4H5.61017V6.66286H8.11864ZM8.83051 11.6C9.28249 11.6 9.64972 11.4971 9.9322 11.2914C10.2147 11.0743 10.3559 10.7543 10.3559 10.3314C10.3559 9.90857 10.2147 9.59429 9.9322 9.38857C9.64972 9.17143 9.28249 9.06286 8.83051 9.06286H5.61017V11.6H8.83051Z" fill="#1D1E20"/>
</svg>

<svg xmlns="http://www.w3.org/2000/svg" width="16" height="16" fill="none" viewBox="0 0 16 16"><path fill="#000" fill-rule="evenodd" d="M3 2h5.1864q1.8983 0 2.9153.8571 1.034.8573 1.0339 2.28 0 1.5429-1.2542 2.16V7.64q1.0169.2914 1.5593 1.0114.5593.72.5593 1.8 0 .9772-.4407 1.7829T11.1864 13.52q-.9151.48-2.322.48H3zm5.1186 4.6629q.678 0 1.034-.2915.3559-.3086.3559-.8571t-.356-.8229Q8.7967 4.4 8.1186 4.4H5.6102v2.2629zm.712 4.9371q.6778 0 1.1016-.3086.4237-.3257.4237-.96t-.4237-.9428q-.4237-.3257-1.1017-.3257H5.6102V11.6z"/></svg>
